!!!!SEGMENT: pl-kk--kk-i-7--070_pekiel-bartlomiej--assumpta-est-maria.krn
!!!cenid: 16xx:909
!!!COM: Pękiel, Bartłomiej
!!!COM-rismID: pe30105642
!!!CDT: <1633-~1670
!!!CNT: Polish
!!!OTL: Assumpta est Maria
!!!PDT: 1663
!!!AGN: Sacred
!!!YEC: Copyright 2022 Narodowy Instytut Fryderyka Chopina (https://polishscores.org)
!!!YEM: License CC-BY-4.0 (https://creativecommons.org/licenses/by/4.0)
!!!SMS-siglum: PL-Kk
!!!SMS-shelfmark: Kk.I.7
!!!SMS-shelfwork: 070 W
!!!SMS-variant:
!!!SMS-altvar:
!!!NIFC-rismSourceID: 300258077
!!!NIFC-rismChildID: 300258147
!!!NIFC-islandoraID: pl-kk:1956
!!!URL-pdf-islandora: https://repozytorium.nifc.pl/islandora/object/pl-kk%3A1956/datastream/PDF/view
!!!URL-scan: https://polish.musicsources.pl/pl/lokalizacje/galeria/rekopisy/6140 @EN{Scan on Polish Music Sources Website} @PL{Skany w portalu Dziedzictwo Muzyki Polskiej w otwartym dostępie}
!!!IIIF: https://repozytorium.nifc.pl/islandora/object/pl-kk%3A1956/datastream/IIIF/view
!!!ONB-nifc: UWAGA: C (skan 0063-0064, s. 119-121), A (0150, s.120-121), T(0226-0227, s.115-117), B(0313-0314, s.113-114). Następny utwór: Nativitas tua Dei Genitrix
!!!AIN: 1 alto 1 bass 1 soprn 1 tenor
!!!key: F
**kern	**text	**kern	**text	**kern	**text	**kern	**text
*part4	*	*part3	*	*part2	*	*part1	*
*staff4	*	*staff3	*	*staff2	*	*staff1	*
*Ibass	*	*Itenor	*	*Ialto	*	*Isoprn	*
*I"[Baſso]	*	*I"[Tenore]	*	*I"[Alto]	*	*I"[Canto]	*
*I'B	*	*I'T	*	*I'A	*	*I'S	*
*ICvox	*	*ICvox	*	*ICvox	*	*ICvox	*
*mI"Basso	*	*mI"Tenore II	*	*mI"Tenore I	*	*mI"Alto	*
*mI'B	*	*mI'T 2	*	*mI'T 1	*	*mI'A	*
*clefF4	*	*clefC4	*	*clefC4	*	*clefC3	*
*	*	*mclefGv2	*	*mclefGv2	*	*mclefG2	*
*k[b-]	*	*k[b-]	*	*k[b-]	*	*k[b-]	*
*F:	*	*F:	*	*F:	*	*F:	*
*M2/1	*	*M2/1	*	*M2/1	*	*M2/1	*
*met(C|)	*	*met(C|)	*	*met(C|)	*	*met(C|)	*
*mmet(c|)	*	*mmet(c|)	*	*mmet(c|)	*	*mmet(c|)	*
=1-	=1-	=1-	=1-	=1-	=1-	=1-	=1-
*xywh-#313:7248,1643,6469,1012	*	*xywh-#226:7074,3431,6626,1437	*	*xywh-#150:1013,1197,6429,1027	*	*xywh-#63:7315,3529,6346,1155	*
!LO:TX:t=P:problem=kreska pseudotaktowa	!	!LO:TX:t=P:problem=kreska pseudotaktowa	!	!	!	!	!
!LO:TX:t=P:problem=przed kluczem inicjał A	!	!	!	!LO:TX:t=P:problem=przed kluczem inicjał A	!	!LO:TX:t=P:problem=przed kluczem inicjał A	!
!	!	!LO:TX:t=P:problem=przed kluczem inicjał A	!	!	!	!	!
0r	.	1r	.	1d\	Aſ-	0r	.
*	*	*	*	*2\right	*	*	*
.	.	1d\	Aſ-	2.B-\	-sum-	.	.
!	!	!	!	!LO:TX:t=P:problem=kreska pseudotaktowa	!	!	!
.	.	.	.	4A/	-pta	.	.
=2-	=2-	=2-	=2-	=2-	=2-	=2-	=2-
*	*	*2\right	*	*	*	*	*
!	!	!	!	!	!	!LO:TX:t=P:problem=kreska pseudotaktowa	!
1G\	Aſ-	2.B-\	-sum-	2G/	est	1r	.
*	*	*	*	*	*ij	*	*
.	.	.	.	2d\	Aſ-	.	.
.	.	4A/	-pta	.	.	.	.
*2\right	*	*	*	*	*	*	*
2.E-X\	-sum-	0G/	est-	2e-X\	-sum-	1g\	Aſ-
!	!	!	!	!LO:TX:t=P:problem=kreska pseudotaktowa	!	!	!
.	.	.	.	2B-\	-pta	.	.
!LO:TX:t=P:problem=kreska pseudotaktowa	!	!	!	!	!	!	!
4D/	-pta	.	.	.	.	.	.
=3-	=3-	=3-	=3-	=3-	=3-	=3-	=3-
*	*	*	*	*	*	*2\right	*
!	!	!LO:TX:t=P:problem=kreska pseudotaktowa	!	!	!	!LO:TX:t=P:problem=all\right&colon; global	!
2C/	est	.	.	4c\	est	2.e-X\	-sum-
*	*	*	*	*	*Xij	*	*
.	.	.	.	4G/	Ma-	.	.
!LO:TX:t=P:problem=kreska pseudotaktowa	!	!	!	!	!	!	!
2C/	Ma-	.	.	1c\	-ri-	.	.
!	!	!	!	!	!	!LO:TX:t=P:problem=kreska pseudotaktowa	!
.	.	.	.	.	.	4e-\	-pta
1G\	-ri-	0r	.	.	.	1.d\	est
!	!	!	!	!LO:TX:t=P:problem=kreska pseudotaktowa	!	!	!
!	!	!	!	!LO:N:acc=#	!	!	!
.	.	.	.	2Bn\	.	.	.
=4-	=4-	=4-	=4-	=4-	=4-	=4-	=4-
*	*	*	*	*lig	*	*	*
2G\	-a	.	.	1e-X\	.	.	.
!LO:TX:t=P:problem=kreska pseudotaktowa	!	!	!	!	!	!LO:TX:t=P:problem=kreska pseudotaktowa	!
2A\	in	.	.	.	.	2c/	Ma-
*lig	*	*	*	*	*	*	*
!	!	!LO:TX:t=P:problem=kreska pseudotaktowa	!	!	!	!	!
1B-\	cae-	1r	.	1d\	.	4c/	-ri-
.	.	.	.	.	.	8B-/L	.
.	.	.	.	.	.	8A/J	.
.	.	.	.	.	.	2.B-/	.
*	*	*	*	*Xlig	*	*	*
=5-	=5-	=5-	=5-	=5-	=5-	=5-	=5-
!LO:TX:t=P:problem=kreska pseudotaktowa	!	!	!	!	!	!	!
1F\	.	1f\	.	2c\	-a	.	.
.	.	.	.	.	.	8A/L	.
.	.	.	.	.	.	8G/J	.
.	.	.	.	2f\	Aſ-	2A/	.
!	!	!	!	!LO:TX:t=P:problem=kreska pseudotaktowa	!	!	!
*Xlig	*	*	*	*	*	*	*
!	!	!	!	!	!	!LO:TX:t=P:problem=kreska pseudotaktowa	!
2BB-,/	-lum	2.d\	.	4f\	-sum-	1B-/	-a
.	.	.	.	4e-X\	.	.	.
!LO:TX:t=P:problem=kreska pseudotaktowa	!	!	!	!	!	!	!
2B-\	Aſ-	.	.	2.d\	.	.	.
!	!	!LO:TX:t=P:problem=kreska pseudotaktowa	!	!	!	!	!
.	.	4c\	.	.	.	.	.
=6-	=6-	=6-	=6-	=6-	=6-	=6-	=6-
2.G\	-sum-	4B-\	.	.	.	1r	.
.	.	4c\	.	4c\	.	.	.
!	!	!LO:N:vis=8.	!	!	!	!	!
.	.	4.d\	-sum-	4B-\	.	.	.
!LO:TX:t=P:problem=kreska pseudotaktowa	!	!	!	!LO:TX:t=P:problem=kreska pseudotaktowa	!	!	!
4F\	.	.	.	4A/	.	.	.
!	!	!LO:TX:t=P:problem=kreska pseudotaktowa	!	!	!	!	!
!	!	!LO:N:vis=4	!	!	!	!	!
.	.	8d\	-pta	.	.	.	.
2E-X\	.	2e-X\	est	1G/	-pta	1G/	Aſ-
!LO:TX:t=P:problem=kreska pseudotaktowa	!	!LO:TX:t=P:problem=kreska pseudotaktowa	!	!	!	!	!
*	*	*	*ij	*	*	*	*
2E-\	-pta	2B-\	Aſ-	.	.	.	.
=7-	=7-	=7-	=7-	=7-	=7-	=7-	=7-
!	!LO:MO:mod=est	!	!	!	!	!	!
1C/,	e(st)	2.c\	-sum-	2G/	est	2.e-X\	-sum-
.	.	.	.	2.c\	Aſ-	.	.
!	!	!LO:TX:t=P:problem=kreska pseudotaktowa	!	!	!	!LO:TX:t=P:problem=kreska pseudotaktowa	!
.	.	4B-\	.	.	.	4d\	-pta
!LO:TX:t=P:problem=kreska pseudotaktowa	!	!	!	!	!	!	!
1F\	Aſ-	4A/	.	.	.	2c/	est
.	.	4G/	-pta	4B-\	.	.	.
!	!	!LO:TX:t=P:problem=kreska pseudotaktowa	!	!LO:TX:t=P::problem=kreska pseudotaktowa&colon;między nutą a kropką	!	!	!
.	.	2F/	est	2.A/	-sum-	2c/	Aſ-
=8-	=8-	=8-	=8-	=8-	=8-	=8-	=8-
2.D/	-sum-	2f\	Aſ-	.	.	4.d\	-sum-
.	.	.	.	4G/	.	.	.
.	.	.	.	.	.	8e\	.
!	!	!	!	!	!	!LO:TX:t=P::problem=kreska pseudotaktowa&colon;między nutą a kropką	!
.	.	2.d\	-sum-	4F/	-pta	2.f\	.
4D/	-pta	.	.	4E/	.	.	.
*	*	*	*	*custos:d	*	*	*
2BB-/	est	.	.	2D/	est	.	.
.	.	4c\	.	.	.	4e\	.
*	*	*	*	*xywh-#150:1130,1823,6229,993	*	*	*
!	!	!	!	!LO:LB:g=original	!	!	!
!LO:TX:t=P:problem=kreska pseudotaktowa	!	!	!	!LO:TX:t=P:problem=kreska pseudotaktowa	!	!	!
2BB-/	Ma-	2.B-\	.	2d\	Ma-	4d\	.
.	.	.	.	.	.	8e\L	.
!	!	!	!	!	!	!LO:TX:t=P:problem=kreska pseudotaktowa	!
.	.	.	.	.	.	8f\J	.
=9-	=9-	=9-	=9-	=9-	=9-	=9-	=9-
2.E-X\	-ri-	.	.	1B-\	-ri-	2.g\	.
.	.	4A/	-pta	.	.	.	.
.	.	1G/	est	.	.	.	.
*	*	*	*Xij	*	*	*	*
!	!	!	!	!	!	!LO:TX:t=P:problem=kreska pseudotaktowa	!
4D/	.	.	.	.	.	4f\	-pta
2C/	-a	.	.	4c\	-a	2e-X\	est
.	.	.	.	4c\	Ma-	.	.
*custos:C	*	*	*	*	*	*custos:c	*
!LO:TX:t=P:problem=kreska pseudotaktowa	!	!	!	!	!	!	!
!LO:N:acc=#	!	!	!	!	!	!LO:TX:t=P:problem=kreska pseudotaktowa	!
!	!	!LO:TX:t=P:problem=kreska pseudotaktowa	!	!	!	!	!
2BBn/	in	2G/	Ma-	4g\	-ri-	2d\	Ma-
!	!	!	!	!LO:TX:t=P:problem=kreska pseudotaktowa	!	!	!
.	.	.	.	4f\	.	.	.
!LO:LB:g=original	!	!	!	!	!	!LO:PB:g=original	!
=10-	=10-	=10-	=10-	=10-	=10-	=10-	=10-
*xywh-#313:7338,2258,6131,982	*	*	*	*	*	*xywh-#64:1072,517,6039,950	*
!LO:TX:t=P:problem=kreska pseudotaktowa	!	!	!	!	!	!	!
0C/	cae-	1G/	-ri-	2.e-X\	.	2.c/	-ri-
.	.	.	.	4d\	.	4d\	.
*	*	*custos:G	*	*	*	*	*
!	!	!LO:TX:t=P:problem=kreska pseudotaktowa	!	!	!	!	!
!	!	!LO:TX:b:i:t=in cael(um):mod=	!	!	!	!	!
.	.	1G/	-a	4c\	.	4e-X\	.
!	!	!	!	!LO:TX:t=P:problem=♯above	!	!	!
!	!	!	!	!LO:N:acc=#	!	!	!
.	.	.	.	4Bn\	.	4d\	.
!	!	!	!	!	!	!LO:TX:t=P:problem=kreska pseudotaktowa	!
.	.	.	.	2c\	.	2e-\	.
!	!	!LO:PB:g=original	!	!	!	!	!
=11-	=11-	=11-	=11-	=11-	=11-	=11-	=11-
*	*	*xywh-#227:1085,560,6000,998	*	*	*	*	*
!	!	!	!	!LO:TX:t=P:problem=kreska pseudotaktowa	!	!	!
!	!	!LO:TX:t=P:problem=kreska pseudotaktowa	!	!LO:N:acc=#	!	!	!
2GG,/	-lum	1r	.	1Bn\	-a	4d\	-a
.	.	.	.	.	.	4G/	in
!LO:TX:t=P:problem=kreska pseudotaktowa	!	!	!	!	!	!	!
2GG/	in	.	.	.	.	2.g\	cae-
2.C/	cae-	2G/	in	1.c\	in	.	.
.	.	.	.	.	.	4f\	.
.	.	2.c\	cae-	.	.	4e\	.
4BB-/	.	.	.	.	.	8f\L	.
!	!	!	!	!	!	!LO:TX:t=P:problem=kreska pseudotaktowa	!
.	.	.	.	.	.	8g\J	.
=12-	=12-	=12-	=12-	=12-	=12-	=12-	=12-
4AA/	.	.	.	.	.	2.a\	.
4GG/	.	4B-\	.	.	.	.	.
!LO:TX:t=P:problem=kreska pseudotaktowa	!	!LO:TX:t=P::problem=kreska pseudotaktowa&colon;między nutą a kropką	!	!	!	!	!
2FF/	.	2.A/	.	2.f\	cae-	.	.
.	.	.	.	.	.	4g\	.
!LO:TX:t=P:problem=kreska pseudotaktowa	!	!	!	!	!	!	!
1FF/	-lum	.	.	.	.	2.f\	.
.	.	4G/	.	8e-X\L	.	.	.
.	.	.	.	8d\J	.	.	.
!	!	!LO:TX:t=P:problem=kreska pseudotaktowa	!	!LO:TX:t=P:problem=kreska pseudotaktowa	!	!	!
.	.	2A/	.	2c\	.	.	.
!	!	!	!	!	!	!LO:TX:t=P:problem=kreska pseudotaktowa	!
.	.	.	.	.	.	4e-X\	.
=13-	=13-	=13-	=13-	=13-	=13-	=13-	=13-
2BB-/	in	2.d\	.	2.B-\	.	2.d\	.
4B-\	cae-	.	.	.	.	.	.
!LO:TX:t=P:problem=kreska pseudotaktowa	!	!	!	!	!	!	!
4A\	.	4c\	.	4c\	.	8e\L	.
.	.	.	.	.	.	8f\J	.
2G\	.	2B-\	.	0.d\	.	2g\	.
!	!	!LO:TX:t=P:problem=kreska pseudotaktowa	!	!	!	!	!
2F#X\	.	2A/	.	.	.	1a\	.
=14-	=14-	=14-	=14-	=14-	=14-	=14-	=14-
!LO:TX:t=P:problem=kreska pseudotaktowa	!	!	!	!	!	!	!
0G\	.	4d\	.	.	.	.	.
.	.	4c\	.	.	.	.	.
.	.	4B-\	.	.	.	4g\	.
!	!	!	!	!	!	!LO:TX:t=P:problem=kreska pseudotaktowa	!
.	.	4A/	.	.	.	4f\	.
.	.	1B-\	.	.	.	1g\	.
=15-	=15-	=15-	=15-	=15-	=15-	=15-	=15-
!LO:TX:t=P:problem=kreska pseudotaktowa	!	!LO:TX:t=P:problem=kreska pseudotaktowa	!	!LO:TX:t=P:problem=kreska pseudotaktowa	!	!	!
1D\	-lum	1A\	-lum.	1d\	-lum	1f#X\	-lum
=16-	=16-	=16-	=16-	=16-	=16-	=16-	=16-
*M3/1	*	*M3/1	*	*M3/1	*	*M3/1	*
0D\	Gau-	0A\	Gau-	0d\	Gau-	0f\	Gau-
!LO:TX:t=P:problem=kreska pseudotaktowa	!	!LO:TX:t=P:problem=kreska pseudotaktowa	!	!LO:TX:t=P:problem=kreska pseudotaktowa	!	!LO:TX:t=P:problem=kreska pseudotaktowa	!
1G\	-dent	1B-\	-dent	1d\	-dent	1g\	-dent
=17-	=17-	=17-	=17-	=17-	=17-	=17-	=17-
1.F\	An-	1.c\	An-	1.f\	An-	1.a\	An-
2F\	-ge-	2c\	-ge-	2f\	-ge-	2a\	-ge-
!LO:TX:t=P:problem=kreska pseudotaktowa	!	!LO:TX:t=P:problem=kreska pseudotaktowa	!	!LO:TX:t=P:problem=kreska pseudotaktowa	!	!LO:TX:t=P:problem=kreska pseudotaktowa	!
1F\	-li	1c\	-li	1f\	-li	1a\	-li
=18-	=18-	=18-	=18-	=18-	=18-	=18-	=18-
*	*ij	*	*ij	*	*ij	*	*
!	!LO:MO:mod=gau-	!	!LO:MO:mod=gau-	!	!LO:MO:mod=gau-	!	!
0F\	Gau-	0A\	Gau-	0c\	Gau-	00.r	.
*	*	*	*	*custos:e	*	*	*
!	!	!	!	!LO:TX:t=P:problem=kreska pseudotaktowa	!	!	!
!LO:TX:t=P:problem=kreska pseudotaktowa	!	!	!	!	!	!	!
1D\	-dent	1B-\	-dent	1d\	-dent	.	.
!	!	!	!	!LO:LB:g=original	!	!	!
=19-	=19-	=19-	=19-	=19-	=19-	=19-	=19-
*	*	*	*	*xywh-#150:1080,2391,6254,1093	*	*	*
1.C/	An-	1.c\	An-	1.e\	An-	.	.
2C/	-ge-	2c\	-ge-	2e\	-ge-	.	.
!LO:TX:t=P:problem=kreska pseudotaktowa	!	!LO:TX:t=P:problem=kreska pseudotaktowa	!	!LO:TX:t=P:problem=kreska pseudotaktowa	!	!	!
1C/	-li	1c\	-li	1e\	-li	.	.
*	*Xij	*	*	*	*Xij	*	*ij
=20-	=20-	=20-	=20-	=20-	=20-	=20-	=20-
!	!	!	!LO:MO:mod=gau-	!	!	!	!LO:MO:mod=gau-
00.r	.	2C/	Gau-	1.e\	gau-	1.g\	Gau-
.	.	2D/	.	.	.	.	.
.	.	2E/	.	.	.	.	.
.	.	2F/	.	4d\	.	4f\	.
.	.	.	.	4c\	.	4e\	.
*	*	*	*	*	*	*custos:e	*
!	!	!	!	!LO:TX:t=P:problem=kreska pseudotaktowa	!	!	!
!	!	!	!	!LO:TX:t=P:problem=♯above	!	!LO:TX:t=P:problem=kreska pseudotaktowa	!
!	!	!LO:TX:t=P:problem=kreska pseudotaktowa	!	!LO:N:acc=#	!	!	!
.	.	1G/	.	1Bn\	.	1d\	.
!	!	!	!	!	!	!LO:LB:g=original	!
=21-	=21-	=21-	=21-	=21-	=21-	=21-	=21-
*	*	*	*	*	*	*xywh-#64:1283,1178,5951,898	*
.	.	1E/	-dent	1c\	-dent	1e\	-dent
!	!	!	!	!LO:TX:t=P:problem=♯above	!	!	!
!	!	!	!	!LO:N:acc=#	!	!	!
.	.	1.G/	An-	1.Bn\	An-	1.d\	An-
*	*	*custos:C	*	*	*	*	*
!	!	!LO:TX:t=P:problem=kreska pseudotaktowa	!	!	!	!	!
!	!	!	!	!LO:TX:t=P:problem=kreska pseudotaktowa	!	!LO:TX:t=P:problem=kreska pseudotaktowa	!
.	.	2G/	-ge-	2B\	-ge-	2d\	-ge-
!	!	!LO:LB:g=original	!	!	!	!	!
=22-	=22-	=22-	=22-	=22-	=22-	=22-	=22-
*custos:G	*	*custos:C	*	*	*	*	*
*	*	*xywh-#227:1151,1187,6008,858	*	*	*	*	*
!LO:TX:t=P:problem=kreska pseudotaktowa	!	!	!	!	!	!	!
0.r	.	1C/,	-li	1c\	-li	1e\	-li
*	*	*	*Xij	*	*ij	*	*Xij
.	.	2C/	gau-	2c\	gau-	1r	.
.	.	2D/	.	4B-\	.	.	.
.	.	.	.	4A/	.	.	.
!	!	!	!	!	!	!LO:TX:t=P:problem=kreska pseudotaktowa	!
.	.	2E/	.	2G/	.	1r	.
!	!	!LO:TX:t=P:problem=kreska pseudotaktowa	!	!LO:TX:t=P:problem=kreska pseudotaktowa	!	!	!
.	.	2F/	.	2A/	.	.	.
!LO:LB:g=original	!	!	!	!	!	!	!
=23-	=23-	=23-	=23-	=23-	=23-	=23-	=23-
*xywh-#313:7318,2913,6240,1021	*	*	*	*	*	*	*
2GG/	gau-	0G/	.	2B-\	.	2g\	gau-
2AA/	.	.	.	2c\	.	4f\	.
.	.	.	.	.	.	4e\	.
2BB-/	.	.	.	2d\	.	2d\	.
2GG/	.	.	.	4c\	.	2e\	.
.	.	.	.	4B-\	.	.	.
!LO:TX:t=P:problem=kreska pseudotaktowa	!	!	!	!LO:TX:t=P:problem=kreska pseudotaktowa	!	!LO:TX:t=P:problem=kreska pseudotaktowa	!
1D\	.	1A\	.	1A\	.	1f#X\	.
=24-	=24-	=24-	=24-	=24-	=24-	=24-	=24-
*	*	*lig	*	*	*	*	*
1BB-/	-dent	1B-\	-dent	1d\	-dent	1g\	-dent
1.D\	An-	1.A\	An-	1.d\	An-	1.g\	An-
*	*	*Xlig	*	*	*	*	*
!	!	!	!	!	!	!LO:TX:t=P:problem=kreska pseudotaktowa	!
!LO:TX:t=P:problem=kreska pseudotaktowa	!	!LO:TX:t=P:problem=kreska pseudotaktowa	!	!LO:TX:t=P:problem=kreska pseudotaktowa	!	!LO:TX:t=P:problem=♯above	!
2D/	-ge-	2A/	-ge-	2d\	-ge-	2f#X\	-ge-
=25-	=25-	=25-	=25-	=25-	=25-	=25-	=25-
!LO:TX:t=P:problem=kreska pseudotaktowa	!	!	!	!	!	!	!
0.G\	-li	1B-\	-li	1d\	-li	1g\	-li
*	*	*	*ij	*	*	*	*ij
.	.	2G/	gau-	1r	.	2g\	gau-
.	.	2A/	.	.	.	4f\	.
.	.	.	.	.	.	4e\	.
!	!	!	!	!LO:TX:t=P:problem=kreska pseudotaktowa	!	!	!
.	.	2B-\	.	1r	.	2d\	.
!	!	!LO:TX:t=P:problem=kreska pseudotaktowa	!	!	!	!LO:TX:t=P:problem=kreska pseudotaktowa	!
.	.	2c\	.	.	.	2e\	.
=26-	=26-	=26-	=26-	=26-	=26-	=26-	=26-
!	!	!	!	!LO:TX:t=P:problem=kreska pseudotaktowa	!	!	!
*	*ij	*	*	*	*	*	*
2D/	gau-	2d\	.	00.r	.	2f\	.
2E\	.	4c\	.	.	.	2g\	.
.	.	4B-\	.	.	.	.	.
2F\	.	2A\	.	.	.	2a\	.
!	!	!LO:TX:t=P:problem=♯above	!	!	!	!	!
!	!	!LO:N:acc=#	!	!	!	!	!
2G\	.	2Bn\	.	.	.	4g\	.
.	.	.	.	.	.	4f\	.
!	!	!LO:TX:t=P:problem=kreska pseudotaktowa	!	!	!	!	!
!LO:TX:t=P:problem=kreska pseudotaktowa	!	!LO:TX:t=P:problem=♯above	!	!	!	!LO:TX:t=P:problem=kreska pseudotaktowa	!
1A\	.	1c#X\	.	.	.	1e\	.
=27-	=27-	=27-	=27-	=27-	=27-	=27-	=27-
1F\	-dent	1d\	-dent	.	.	1f\	-dent
!	!	!LO:TX:t=P:problem=♯above	!	!	!	!	!
1.A\	An-	1.c#X\	An-	.	.	1.e\	An-
!	!	!LO:TX:t=P:problem=kreska pseudotaktowa	!	!	!	!	!
2AA/	-ge-	2c#\	-ge-	.	.	2e\	-ge-
=28-	=28-	=28-	=28-	=28-	=28-	=28-	=28-
!LO:TX:t=P:problem=kreska pseudotaktowa	!	!	!	!	!	!LO:TX:t=P:problem=kreska pseudotaktowa	!
0.D\	-li	1d\	-li	2D/	gau-	0.f\	-li
*	*Xij	*	*	*	*	*	*Xij
.	.	.	.	2E/	.	.	.
.	.	2d\	gau-	2F/	.	.	.
.	.	4c\	.	2G/	.	.	.
.	.	4B-\	.	.	.	.	.
!	!	!LO:TX:t=P:problem=kreska pseudotaktowa	!	!	!	!	!
.	.	1A\	.	2A/	.	.	.
*	*	*	*	*custos:d	*	*	*
!	!	!	!	!LO:TX:t=P:problem=kreska pseudotaktowa	!	!	!
.	.	.	.	2D/	.	.	.
!	!	!	!	!LO:LB:g=original	!	!	!
=29-	=29-	=29-	=29-	=29-	=29-	=29-	=29-
*	*	*col	*	*	*	*	*
*	*	*	*	*xywh-#150:1389,3009,5945,1085	*	*	*
2BB-/	gau-	1B-\	-dent	1.d\	.	1.f\	gau-
2C/	.	.	.	.	.	.	.
2D/	.	0F/	.	.	.	.	.
2E\	.	.	.	4c\	.	4e-X\	.
.	.	.	.	4B-\	.	4d\	.
1F\	.	.	.	1A\	.	1c\	.
*	*	*	*	*	*	*custos:d	*
!	!	!	!	!	!	!LO:TX:t=P:problem=kreska pseudotaktowa	!
!LO:TX:t=P:problem=kreska pseudotaktowa	!	!	!	!LO:TX:t=P:problem=kreska pseudotaktowa	!	!	!
*	*	*Xcol	*	*	*	*	*
!	!	!	!	!	!	!LO:LB:g=original	!
=30-	=30-	=30-	=30-	=30-	=30-	=30-	=30-
*	*	*	*	*	*	*xywh-#64:1160,1715,6145,994	*
1BB-/	-dent	0F/	An-	1B-\	-dent	1d\	-dent
1.F\	An-	.	.	1.A\	An-	1.c\	An-
*	*	*custos:B	*	*	*	*	*
.	.	1F/	-ge-	.	.	.	.
2F\	-ge-	.	.	2A/	-ge-	2c/	-ge-
!	!	!LO:LB:g=original	!	!	!	!	!
=31-	=31-	=31-	=31-	=31-	=31-	=31-	=31-
*M2/1	*	*M2/1	*	*M2/1	*	*M2/1	*
*met(C|)	*	*met(C|)	*	*met(C|)	*	*met(C|)	*
*mmet(c|)	*	*mmet(c|)	*	*mmet(c|)	*	*mmet(c|)	*
*	*	*xywh-#227:1068,1749,6148,907	*	*	*	*	*
4BB-,/	-li	2B-\	-li	4B-,\	-li	2d\	-li
*	*	*	*Xij	*	*Xij	*	*
4B-\	Lau-	.	.	4d\	Lau-	.	.
!	!	!LO:TX:t=P:problem=kreska pseudotaktowa	!	!	!	!LO:TX:t=P:problem=kreska pseudotaktowa	!
4A\	-dan-	2r	.	4c\	-dan-	2f\	Lau-
*custos:G	*	*	*	*	*	*	*
!LO:TX:t=P:problem=kreska pseudotaktowa	!	!	!	!	!	!	!
!	!	!	!	!LO:TX:t=P:problem=kreska pseudotaktowa	!	!	!
4F,\	-tes	.	.	4A/	-tes	.	.
*xywh-#313:7288,3509,6211,1359	*	*	*	*	*	*	*
!LO:LB:g=original	!	!	!	!	!	!	!
4G\	be-	1r	.	8.B-\	be-	4e-X\	-dan-
.	.	.	.	16B-\	-ne-	.	.
4A\	-ne-	.	.	4.f\	-di-	4c/	-tes
4.B-\	-di-	.	.	.	.	8.d\	be-
.	.	.	.	8e\	.	.	.
.	.	.	.	.	.	16c\	-ne-
.	.	.	.	8d\L	-cunt	8.f\	-di-
!LO:TX:t=P:problem=kreska pseudotaktowa	!	!	!	!LO:TX:t=P:problem=kreska pseudotaktowa	!	!	!
8A\	-cunt	.	.	8c\J	.	.	.
!	!	!	!	!	!	!LO:TX:t=P:problem=kreska pseudotaktowa	!
.	.	.	.	.	.	16f\	-cunt
=32-	=32-	=32-	=32-	=32-	=32-	=32-	=32-
!	!LO:MO:mod=Do-	!	!	!	!LO:MO:mod=Do-	!	!LO:MO:mod=Do-
4.G\	D(o-	4r	.	4.B-\	D(o-	4.f\	D(o-
.	.	4B-\	Lau-	.	.	.	.
!	!LO:MO:mod=-mi-	!	!	!	!LO:MO:mod=-mi-	!	!LO:MO:mod=-mi-
8G\	-mi)-	.	.	8B-\	-mi)-	8e\	-mi)-
!LO:TX:t=P:problem=kreska pseudotaktowa	!	!	!	!LO:TX:t=P:problem=kreska pseudotaktowa	!	!	!
2F\	-num	4A/	-dan-	2c\	-num	4f\	-num
!	!	!LO:TX:t=P:problem=kreska pseudotaktowa	!	!	!	!LO:TX:t=P:problem=kreska pseudotaktowa	!
*	*	*	*	*	*	*	*ij
.	.	4F/	-tes	.	.	4f\	Lau-
2C/	Lau-	4G/	be-	4r	.	4e-X\	-dan-
*	*	*	*	*	*ij	*	*
.	.	4A/	-ne-	4e-X\	Lau-	4c/	-tes
!	!	!LO:TX:t=P:problem=kreska pseudotaktowa	!	!	!	!	!
4BB-/	-dan-	2B-\	-di-	4d\	-dan-	4.d\	be-
!LO:TX:t=P:problem=kreska pseudotaktowa	!	!	!	!LO:TX:t=P:problem=kreska pseudotaktowa	!	!	!
4GG/	-tes	.	.	4B-\	-tes	.	.
!	!	!	!	!	!	!LO:TX:t=P:problem=kreska pseudotaktowa	!
.	.	.	.	.	.	8e-\	-ne-
=33-	=33-	=33-	=33-	=33-	=33-	=33-	=33-
!	!	!	!LO:MO:mod=-cunt	!	!	!	!
4AA/	be-	2A/	-c(un)t	4.c\	be-	4.f\	-di-
4FF/	-ne-	.	.	.	.	.	.
.	.	.	.	8A/	-ne-	8f\	-cunt
!	!	!LO:TX:t=P:problem=kreska pseudotaktowa	!	!	!	!	!LO:MO:mod=Do-
4.C/	-di-	2r	.	8G/L	-di-	8e-X\L	D(o-
.	.	.	.	8A/	.	8f\J	.
.	.	.	.	8B-/	.	2g\	.
!LO:TX:t=P:problem=kreska pseudotaktowa	!	!	!	!LO:TX:t=P:problem=kreska pseudotaktowa	!	!	!
8BB-/	-cunt	.	.	8G/J	.	.	.
*	*	*	*ij	*	*	*	*
!	!LO:MO:mod=Do-	!	!	!	!	!	!
4.AA/	D(o-	2c\	Lau-	8A/	.	.	.
.	.	.	.	8B-\	-cunt	.	.
!	!	!	!	!	!LO:MO:mod=Do-	!LO:TX:t=P:problem=♯above	!LO:MO:mod=-mi-
.	.	.	.	8.c\	D(o-	4f#X\	-mi)-
!	!LO:MO:mod=-mi-	!	!	!	!	!	!
8AA/	-mi)-	.	.	.	.	.	.
!	!	!	!	!	!LO:MO:mod=-mi-	!	!
.	.	.	.	16c\	-mi)-	.	.
*	*	*	*	*custos:d	*	*	*
!	!	!	!	!LO:TX:t=P:problem=kreska pseudotaktowa	!	!	!
!	!LO:MO:mod=-num	!	!	!	!	!LO:TX:t=P:problem=kreska pseudotaktowa	!
4GG/	-n(um)	4B-\	-dan-	2d\	-num	2g\	-num
*	*	*	*	*	*Xij	*	*Xij
!LO:TX:t=P:problem=kreska pseudotaktowa	!	!LO:TX:t=P:problem=kreska pseudotaktowa	!	!	!	!	!
*	*ij	*	*	*	*	*	*
4G\	Lau-	4G/	-tes	.	.	.	.
!	!	!	!	!LO:LB:g=original	!	!	!
=34-	=34-	=34-	=34-	=34-	=34-	=34-	=34-
*	*	*	*	*xywh-#150:1222,3702,6162,1210	*	*	*
!	!	!	!	!LO:TX:t=P:problem=kreska pseudotaktowa	!	!	!
4F\	-dan-	4A\	be-	1r	.	0r	.
!	!	!LO:N:acc=#	!	!	!	!	!
!	!	!LO:TX:t=P:problem=♯above	!	!	!	!	!
4D\	-tes	4Bn\	-ne-	.	.	.	.
4E\	be-	4c\	-di-	.	.	.	.
!LO:TX:t=P:problem=kreska pseudotaktowa	!	!LO:TX:t=P:problem=kreska pseudotaktowa	!	!	!	!	!
4F#X\	-ne-	4A/	.	.	.	.	.
!	!	!	!LO:MO:mod=-cunt	!	!	!	!
8.G\	-di-	2B\	-c(un)t	4.d\	be-	.	.
*	*	*	*Xij	*	*	*	*
16D\	-cunt	.	.	.	.	.	.
!	!LO:MO:mod=Do-	!	!	!	!	!	!
2G\	D(o-	.	.	.	.	.	.
.	.	.	.	8d\	-ne-	.	.
.	.	4.A/	Do-	4c\	-di-	.	.
!	!LO:MO:mod=-mi-	!	!	!LO:TX:t=P:problem=kreska pseudotaktowa	!LO:MO:mod=-cunt	!	!
4F#\	-mi)-	.	.	4A/	-cut	.	.
!	!	!LO:TX:t=P:problem=kreska pseudotaktowa	!	!	!	!	!
.	.	8A/	-mi-	.	.	.	.
=35-	=35-	=35-	=35-	=35-	=35-	=35-	=35-
!	!LO:MO:mod=-num	!	!LO:MO:mod=-num	!	!	!	!
4G\	-n(um)	4G/	-n(um)	8B-\L	Do-	2r	.
.	.	.	.	8c\J	.	.	.
*	*Xij	*	*	*	*	*	*
8G\L	Do-	8B-\L	Do-	2d\	.	.	.
8F\J	.	8A\J	.	.	.	.	.
!LO:TX:t=P:♭above:problem	!	!	!	!	!	!LO:TX:t=P:problem=kreska pseudotaktowa	!
8E-X\L	.	8G/L	.	.	.	2g\	Lau-
!	!	!LO:TX:t=P:problem=# przesunięty pod nutę  G	!	!	!	!	!
!	!	!LO:TX:t=P:♯below:problem	!	!	!	!	!
8D\J	.	8F#X/J	.	.	.	.	.
!	!	!	!	!LO:TX:t=P:problem=kreska pseudotaktowa	!	!	!
!	!	!	!	!LO:N:acc=#	!	!	!
!	!	!	!	!LO:TX:t=P:problem=♯above	!	!	!
8.E-\	.	8.G/	.	4c#X\	-mi-	.	.
!	!	!LO:TX:t=P:problem=kreska pseudotaktowa	!	!	!	!	!
16E-\	-mi-	16G/	-mi-	.	.	.	.
!	!	!	!LO:MO:mod=-num	!	!LO:MO:mod=-num	!	!
2D/	-num.	4A/	-n(um)	2d\	-n(um)	4f\	-dan-
.	.	4d\	Lau-	.	.	4d\	-tes
*custos:G	*	*	*	*	*	*	*
!LO:TX:t=P:problem=kreska pseudotaktowa	!	!	!	!	!	!	!
!	!	!	!	!LO:TX:t=P:problem=kreska pseudotaktowa	!	!	!
2r	.	4c\	-dan-	2r	.	4e\	be-
!	!	!LO:TX:t=P:problem=kreska pseudotaktowa	!	!	!	!LO:TX:t=P:problem=kreska pseudotaktowa	!
.	.	4A/	-tes	.	.	4f\	-ne-
!LO:PB:g=original	!	!	!	!	!	!	!
=36-	=36-	=36-	=36-	=36-	=36-	=36-	=36-
*xywh-#314:1068,481,6156,959	*	*	*	*	*	*	*
4r	.	4.B-\	be-	0r	.	8d\L	-di-
.	.	.	.	.	.	8c\	.
!	!LO:MO:mod=Lau-	!	!	!	!	!	!
4G\	lau-	.	.	.	.	8d\	.
*	*	*	*	*	*	*custos:f	*
.	.	8B-\	-ne-	.	.	8e\J	.
*	*	*	*	*	*	*xywh-#64:1336,2410,5890,915	*
!	!	!	!	!	!	!LO:LB:g=original	!
!	!	!	!	!	!	!LO:TX:t=P:problem=kreska pseudotaktowa	!
4F\	-dan-	8.A\	-di-	.	.	2f\	.
!	!	!	!LO:MO:mod=-cunt	!	!	!	!
.	.	16A\	-c(un)t	.	.	.	.
*	*	*custos:c	*	*	*	*	*
!	!	!LO:TX:t=P:problem=kreska pseudotaktowa	!	!	!	!	!
!LO:TX:t=P:problem=kreska pseudotaktowa	!	!	!	!	!	!	!
4D/	-tes	4d\	Do-	.	.	.	.
*	*	*xywh-#227:1209,2318,5917,940	*	*	*	*	*
!	!	!LO:LB:g=original	!	!	!	!	!
4E\	be-	(4c\	.	.	.	2e\	-cut
4C/	-ne-	2c\	.	.	.	.	.
!LO:TX:t=P:problem=kreska pseudotaktowa	!	!	!	!	!	!	!
2G\	-di-	.	.	.	.	4.d\	Do-
!	!	!LO:TX:t=P:problem=kreska pseudotaktowa	!	!	!	!	!
.	.	4B-\)	.	.	.	.	.
!	!	!	!	!	!	!LO:TX:t=P:problem=kreska pseudotaktowa	!
.	.	.	.	.	.	8e\	.
=37-	=37-	=37-	=37-	=37-	=37-	=37-	=37-
4D,/	-cunt	8A\L	.	2r	.	2.f\	.
.	.	16B-\L	.	.	.	.	.
.	.	16c\JJ	.	.	.	.	.
(8B-\L	Do-	8d\L	.	.	.	.	.
8A\J)	.	8c\J	.	.	.	.	.
(8G\L	.	4.B-\	.	4r	.	.	.
8F\J)	.	.	.	.	.	.	.
!	!	!	!	!LO:TX:t=P:problem=kreska pseudotaktowa	!	!	!
8.G\	.	.	.	4B-\	Lau-	4e\	-mi-
!	!	!LO:TX:t=P:problem=kreska pseudotaktowa	!	!	!	!	!
.	.	8B-\	-mi-	.	.	.	.
!LO:TX:t=P:problem=kreska pseudotaktowa	!	!	!	!	!	!	!
16G\	-mi-	.	.	.	.	.	.
!	!LO:MO:mod=-num	!	!LO:MO:mod=-num	!	!	!	!
2F\	-n(um)	2c\	-n(um)	4A/	-dan-	4f,\	-num
*	*	*	*	*	*	*	*ij
.	.	.	.	4F/	-tes	4f\	Lau-
!LO:TX:t=P:problem=kreska pseudotaktowa	!	!LO:TX:t=P:problem=kreska pseudotaktowa	!	!	!	!	!
*	*ij	*	*	*	*	*	*
2C/	Do-	2r	.	4G/	be-	4e-X\	-dan-
!	!	!	!	!LO:TX:t=P:problem=kreska pseudotaktowa	!	!LO:TX:t=P:problem=kreska pseudotaktowa	!
.	.	.	.	4A/	-ne-	4c/	-tes
=38-	=38-	=38-	=38-	=38-	=38-	=38-	=38-
4BB-/	.	2r	.	2B-\	-di-	4.d\	be-
4GG/	.	.	.	.	.	.	.
.	.	.	.	.	.	8e\	-ne-
!	!	!	!	!LO:TX:t=P:problem=kreska pseudotaktowa	!	!	!
4AA/	.	4r	.	2A/	-cunt	4.f\	-di-
!LO:TX:t=P:problem=kreska pseudotaktowa	!	!LO:TX:t=P:problem=kreska pseudotaktowa	!LO:MO:mod=Lau-	!	!	!	!
4FF/	.	4f\	lau-	.	.	.	.
!	!	!	!	!	!	!LO:TX:t=P:problem=kreska pseudotaktowa	!
.	.	.	.	.	.	8F/	-cunt
2C/	-mi-	4e-X\	-dan-	0r	.	4G/	Do-
.	.	4c\	-tes	.	.	8.A/	.
.	.	.	.	.	.	16A/	-mi-
!	!LO:MO:mod=-num	!	!	!	!	!	!
4BB-,/	-n(um)	4.d\	be-	.	.	4B-/	-num
*	*Xij	*	*	*	*	*	*Xij
!LO:TX:t=P:problem=kreska pseudotaktowa	!LO:MO:mod=Lau-	!	!	!	!	!LO:TX:t=P:problem=kreska pseudotaktowa	!
4B-\	lau-	.	.	.	.	4r	.
!	!	!LO:TX:t=P:problem=kreska pseudotaktowa	!	!	!	!	!
.	.	8e-\	-ne-	.	.	.	.
=39-	=39-	=39-	=39-	=39-	=39-	=39-	=39-
4A\	-dan-	4c\	-di-	.	.	2f\	Lau-
4F\	-tes	4A\	.	.	.	.	.
!	!	!	!LO:MO:mod=-cunt	!	!	!	!
4G\	be-	4B-\	-c(un)t	.	.	4e-X\	-dan-
!LO:TX:t=P:problem=kreska pseudotaktowa	!	!	!LO:MO:mod=Do-	!	!	!LO:TX:t=P:problem=kreska pseudotaktowa	!
4A\	-ne-	2c\	D(o-	.	.	4c/	-tes
2B-\	-di-	.	.	1r	.	4.d\	be-
.	.	4B-\	.	.	.	.	.
.	.	.	.	.	.	8e-\	-ne-
!LO:TX:t=P:problem=kreska pseudotaktowa	!	!	!	!	!	!	!
2F\	-cunt	4.A/	.	.	.	8.f\	-di-
!	!	!	!	!	!	!	!LO:MO:mod=-cunt
.	.	.	.	.	.	16c/	-c(un)t
!	!	!	!	!	!	!	!LO:MO:mod=Do-
.	.	.	.	.	.	2f\	D(o-
!	!	!LO:TX:t=P:problem=kreska pseudotaktowa	!LO:MO:mod=-mi-	!	!	!	!
.	.	8A/	-mi)-	.	.	.	.
=40-	=40-	=40-	=40-	=40-	=40-	=40-	=40-
*	*	*	*	*	*ij	*	*
!	!LO:MO:mod=Do-	!	!	!	!	!	!
4.C/	D(o-	2.G/	-num	2c\	Lau-	.	.
!	!	!	!	!	!	!	!LO:MO:mod=-mi-
.	.	.	.	.	.	4e-X\	-mi)-
!	!LO:MO:mod=-mi-	!	!	!	!	!	!
8C/	-mi)-	.	.	.	.	.	.
!LO:TX:t=P:problem=kreska pseudotaktowa	!	!	!	!	!	!	!
2GG/	-num	.	.	4B-\	-dan-	4d\	-num
!	!	!	!	!LO:TX:t=P:problem=kreska pseudotaktowa	!	!LO:TX:t=P:problem=kreska pseudotaktowa	!
*	*	*	*	*	*	*	*ij
.	.	2d\	be-	4G/	-tes	4g\	Lau-
4D/	be-	.	.	8.A/	be-	4f\	-dan-
.	.	.	.	16F/	-ne-	.	.
*custos:E	*	*	*	*	*	*	*
4BB-/	-ne-	4d\	-ne-	4.B-\	-di-	4d\	-tes
*xywh-#314:1131,1065,6103,949	*	*	*	*	*	*	*
!LO:LB:g=original	!	!	!	!	!	!	!
4E-X\	-di-	4.G/	-di-	.	.	8.g\	be-
.	.	.	.	8G/	-cunt	.	.
.	.	.	.	.	.	16g\	-ne-
!LO:TX:t=P:problem=kreska pseudotaktowa	!	!	!	!	!	!	!
!LO:SIC:v:o=4BB-/	!	!	!	!	!	!	!
4CC	-cunt	.	.	8.c\	be-	2e-X\	-di-
!	!	!LO:TX:t=P:problem=kreska pseudotaktowa	!LO:MO:mod=-cunt	!	!	!	!
.	.	8G/	-c(un)t	.	.	.	.
!	!	!	!	!LO:TX:t=P:problem=kreska pseudotaktowa	!	!	!
.	.	.	.	16B-\	-ne-	.	.
=41-	=41-	=41-	=41-	=41-	=41-	=41-	=41-
2.F\	Do-	2.F/	Do-	8.A/	-di-	.	.
.	.	.	.	16A/	-cunt	.	.
*	*	*	*	*	*Xij	*	*
!	!	!	!	!	!	!	!LO:MO:mod=-cunt
.	.	.	.	2B-\	Do-	4d\	-c(un)t
!	!	!	!	!	!	!	!LO:MO:mod=Do-
.	.	.	.	.	.	4.c/	D(o-
!LO:TX:t=P:problem=kreska pseudotaktowa	!	!	!	!LO:TX:t=P:problem=kreska pseudotaktowa	!	!	!
4F\	-mi-	4F/	-mi-	4A/	-mi-	.	.
*	*	*	*	*	*	*custos:d	*
!	!	!	!	!	!	!LO:TX:t=P:problem=kreska pseudotaktowa	!LO:MO:mod=-mi-
.	.	.	.	.	.	8c/	-mi)-
*	*	*	*	*custos:d	*	*	*
!	!	!	!	!	!	!LO:LB:g=original	!
!	!	!	!	!LO:TX:t=P:problem=kreska pseudotaktowa	!	!	!
*	*	*	*	*	*	*xywh-#64:1160,2947,6022,950	*
!LO:TX:t=P:problem=kreska pseudotaktowa	!	!	!LO:MO:mod=-num	!	!	!	!
1BB-/	-num	1F/	-n(um)	1B-\	-num	1d\	-num
*	*	*	*	*	*	*	*Xij
!	!	!	!	!LO:PB:g=original	!	!	!
=42-	=42-	=42-	=42-	=42-	=42-	=42-	=42-
*M3/1	*	*M3/1	*	*M3/1	*	*M3/1	*
*	*	*	*	*xywh-#150:7328,516,6187,1027	*	*	*
1r	.	1r	.	1r	.	1r	.
1r	.	1r	.	1r	.	1r	.
!LO:TX:t=P:problem=kreska pseudotaktowa	!	!LO:TX:t=P:problem=kreska pseudotaktowa	!	!LO:TX:t=P:problem=kreska pseudotaktowa	!	!LO:TX:t=P:problem=kreska pseudotaktowa	!
1BB-/	Nos	1B-\	Nos	1d\	Nos	1f\	Nos
=43-	=43-	=43-	=43-	=43-	=43-	=43-	=43-
1B-\	quo-	1B-\	quo-	1d\	quo-	1f\	quo-
!	!LO:MO:mod=-que	!	!LO:MO:mod=-que	!	!LO:MO:mod=-que	!	!LO:MO:mod=-que
1.G\	-(que)	1.B-\	-(que)	1.e\	-(que)	1.g\	-(que)
*	*	*custos:c	*	*	*	*	*
!	!	!LO:TX:t=P:problem=kreska pseudotaktowa	!	!	!	!	!
!LO:TX:t=P:problem=kreska pseudotaktowa	!	!	!	!	!	!LO:TX:t=P:problem=kreska pseudotaktowa	!
2C/	mor-	2B-\	mor-	2e\	mor-	2g\	mor-
!	!	!LO:LB:g=original	!	!	!	!	!
=44-	=44-	=44-	=44-	=44-	=44-	=44-	=44-
*	*	*xywh-#227:1052,2904,6223,973	*	*	*	*	*
0F\	-ta-	0c\	-ta-	0f\	-ta-	0a\	-ta-
!LO:TX:t=P:problem=kreska pseudotaktowa	!	!LO:TX:t=P:problem=kreska pseudotaktowa	!	!LO:TX:t=P:problem=kreska pseudotaktowa	!	!LO:TX:t=P:problem=kreska pseudotaktowa	!
1FF/	-les	1c\	-les	1f\	-les	1a\	-les
=45-	=45-	=45-	=45-	=45-	=45-	=45-	=45-
1r	.	1r	.	1r	.	1r	.
1r	.	1r	.	1r	.	1r	.
!LO:TX:t=P:problem=kreska pseudotaktowa	!	!LO:TX:t=P:problem=kreska pseudotaktowa	!	!LO:TX:t=P:problem=kreska pseudotaktowa	!	!LO:TX:t=P:problem=kreska pseudotaktowa	!
*	*ij	*	*ij	*	*ij	*	*ij
1F\	Nos	1A\	Nos	1c\	Nos	1f\	Nos
=46-	=46-	=46-	=46-	=46-	=46-	=46-	=46-
1F\	quo-	1A\	quo-	1c\	quo-	1f\	quo-
!	!	!LO:N:acc=#	!	!	!	!	!
!	!LO:MO:mod=-que	!LO:TX:t=P:problem=♯above	!LO:MO:mod=-que	!	!LO:MO:mod=-que	!	!LO:MO:mod=-que
1.D\	-(que)	1.Bn\	-(que)	1.d\	-(que)	1.f\	-(que)
!LO:TX:t=P:problem=kreska pseudotaktowa	!	!LO:TX:t=P:problem=kreska pseudotaktowa	!	!LO:TX:t=P:problem=kreska pseudotaktowa	!	!LO:TX:t=P:problem=kreska pseudotaktowa	!
2G\	mor-	2B\	mor-	2d\	mor-	2g\	mor-
=47-	=47-	=47-	=47-	=47-	=47-	=47-	=47-
0C/	-ta-	0c\	-ta-	0e\	-ta-	0g\	-ta-
!LO:TX:t=P:problem=kreska pseudotaktowa	!	!LO:TX:t=P:problem=kreska pseudotaktowa	!	!LO:TX:t=P:problem=kreska pseudotaktowa	!	!LO:TX:t=P:problem=kreska pseudotaktowa	!
1C/	-les	1c\	-les	1e\	-les	1g\	-les
*	*Xij	*	*Xij	*	*Xij	*	*Xij
=48-	=48-	=48-	=48-	=48-	=48-	=48-	=48-
1.F\	gau-	1.c\	gau-	1.f\	gau-	1.a\	gau-
2F\	-de-	2c\	-de-	2f\	-de-	2a\	-de-
2.C/	-a-	2c\	-a-	2.e\	-a-	2g\	-a-
!	!	!LO:TX:t=P:problem=kreska pseudotaktowa	!LO:MO:mod=-mus	!	!	!LO:TX:t=P:problem=kreska pseudotaktowa	!
.	.	2c\	-m(us)	.	.	2g\	-mus
!LO:TX:t=P:problem=kreska pseudotaktowa	!	!	!	!LO:TX:t=P:problem=kreska pseudotaktowa	!LO:MO:mod=-mus	!	!
4C/	-mus	.	.	4e\	-m(us)	.	.
=49-	=49-	=49-	=49-	=49-	=49-	=49-	=49-
1.D\	iu-	1.A\	iu-	1.d\	iu-	1.f\	iu-
2D/	-bi-	2A/	-bi-	2d\	-bi-	2f\	-bi-
2AA/	-le-	2A/	-le-	2.c\	-le-	2e\	-le-
*custos:BB	*	*	*	*	*	*	*
!LO:TX:t=P:problem=kreska pseudotaktowa	!	!	!	!	!	!	!
!	!LO:MO:mod=-mus	!LO:TX:t=P:problem=kreska pseudotaktowa	!	!	!	!LO:TX:t=P:problem=kreska pseudotaktowa	!
2AA/	-m(us)	2A/	-mus	.	.	2e\	-mus
!	!	!	!	!LO:TX:t=P:problem=kreska pseudotaktowa	!	!	!
.	.	.	.	4c\	-mus	.	.
!LO:LB:g=original	!	!	!	!	!	!	!
=50-	=50-	=50-	=50-	=50-	=50-	=50-	=50-
*	*	*	*ij	*	*ij	*	*ij
*xywh-#314:1037,1712,6176,897	*	*	*	*	*	*	*
1.BB-/	gau-	1.F/	gau-	1.B-\	gau-	1.d\	gau-
2BB-/	-de-	2f\	-de-	2B-\	-de-	2d\	-de-
2F\	-a-	2f\	-a-	2.A/	-a-	2c/	-a-
!LO:TX:t=P:problem=kreska pseudotaktowa	!	!LO:TX:t=P:problem=kreska pseudotaktowa	!LO:MO:mod=-mus	!	!	!LO:TX:t=P:problem=kreska pseudotaktowa	!
2F\	-mus	2f\	-m(us)	.	.	2c/	-mus
!	!	!	!	!LO:TX:t=P:problem=kreska pseudotaktowa	!LO:MO:mod=-mus	!	!
.	.	.	.	4A,/	-m(us)	.	.
=51-	=51-	=51-	=51-	=51-	=51-	=51-	=51-
1.G\	iu-	1.d\	iu-	2.G/	iu-	2.B-/	iu-
.	.	.	.	4G/	-bi-	4G/	-bi-
*	*	*	*	*col	*	*col	*
*	*	*	*	*	*	*custos:g	*
.	.	.	.	0B-\	-le-	0g\	-le-
2G\	-bi-	2d\	-bi-	.	.	.	.
*col	*	*col	*	*	*	*	*
0E-X\	-le-	0e-X\	-le-	.	.	.	.
!	!	!	!	!	!	!LO:LB:g=original	!
=52-	=52-	=52-	=52-	=52-	=52-	=52-	=52-
*	*	*	*	*Xcol	*	*Xcol	*
*	*	*	*	*	*	*xywh-#64:1001,3528,6374,1030	*
.	.	.	.	0B-\	-mus	0g\	-mus
*Xcol	*	*Xcol	*	*	*Xij	*	*Xij
1E-X\	-mus	1B-\	-mus	.	.	.	.
*	*	*	*Xij	*	*	*	*
*	*	*	*	*custos:d	*	*	*
!	!	!	!	!LO:TX:t=P:problem=kreska pseudotaktowa	!	!	!
!LO:TX:t=P:problem=kreska pseudotaktowa	!	!	!	!	!	!LO:TX:t=P:problem=kreska pseudotaktowa	!
1D\	di-	1B-\	di-	1d\	di-	1f\	di-
!	!	!	!	!LO:LB:g=original	!	!	!
=53-	=53-	=53-	=53-	=53-	=53-	=53-	=53-
*	*	*	*	*xywh-#150:7420,1209,6012,926	*	*	*
0.F\	-cen-	1B-\	-cen-	1d\	-cen-	0.f\	-cen-
.	.	2A/	.	2c\	.	.	.
.	.	2G/	.	2B-\	.	.	.
!	!	!LO:TX:t=P:problem=kreska pseudotaktowa	!	!LO:TX:t=P:problem=kreska pseudotaktowa	!	!	!
.	.	1A\	.	1c\	.	.	.
=54-	=54-	=54-	=54-	=54-	=54-	=54-	=54-
!LO:TX:t=P:problem=kreska pseudotaktowa	!	!	!	!LO:TX:t=P:problem=kreska pseudotaktowa	!	!LO:TX:t=P:problem=kreska pseudotaktowa	!
0.BB-/	-tes	0B-\	-tes	0.d\	-tes	0.f\	-tes
*	*	*custos:BB	*	*	*	*	*
.	.	1r	.	.	.	.	.
!	!	!LO:LB:g=original	!	!	!	!	!
*	*	*xywh-#227:1110,3548,6041,1023	*	*	*	*	*
=55-	=55-	=55-	=55-	=55-	=55-	=55-	=55-
!LO:TX:t=P:problem=kreska pseudotaktowa	!	!LO:TX:t=P:problem=kreska pseudotaktowa	!	!	!	!	!
00.r	.	00.r	.	1d\	Vi-	1f\	Vi-
!	!	!	!	!	!LO:MO:mod=-vat	!	!LO:MO:mod=-vat
.	.	.	.	1c\	-uat	1e-X\	-uat
!	!	!	!	!LO:TX:t=P:problem=kreska pseudotaktowa	!	!	!
.	.	.	.	1B-\	Ma-	1d\	Ma-
=56-	=56-	=56-	=56-	=56-	=56-	=56-	=56-
.	.	.	.	0A\	-ri-	0c\	-ri-
!	!	!	!	!LO:TX:t=P:problem=kreska pseudotaktowa	!	!LO:TX:t=P:problem=kreska pseudotaktowa	!
.	.	.	.	1A\	-a	1c\	-a
=57-	=57-	=57-	=57-	=57-	=57-	=57-	=57-
*	*	*	*	*	*	*	*ij
1C/	Vi-	1e-X\	Vi-	00.r	.	1g\	Vi-
!	!LO:MO:mod=-vat	!	!LO:MO:mod=-vat	!	!	!	!LO:MO:mod=-vat
1D\	-uat	1d\	-uat	.	.	1f\	-uat
!LO:TX:t=P:problem=kreska pseudotaktowa	!	!LO:TX:t=P:problem=kreska pseudotaktowa	!	!	!	!	!
1E-X\	Ma-	1c\	Ma-	.	.	1e-X\	Ma-
=58-	=58-	=58-	=58-	=58-	=58-	=58-	=58-
1.G\	-ri-	1.B-\	-ri-	.	.	1.d\	-ri-
2G\	-a	2G/	-a	.	.	2e-X\	-a
*	*	*	*	*	*	*	*Xij
!LO:TX:t=P:problem=kreska pseudotaktowa	!	!	!	!	!	!LO:TX:t=P:problem=kreska pseudotaktowa	!
1F\	in	2A/	in	.	.	1f\	in
!	!	!LO:TX:t=P:problem=kreska pseudotaktowa	!	!	!	!	!
.	.	2F/	ae-	.	.	.	.
=59-	=59-	=59-	=59-	=59-	=59-	=59-	=59-
1C/	ae-	0c\	-ter-	00.r	.	1e-X\	ae-
*	*	*	*	*	*	*col	*
0G\	-ter-	.	.	.	.	0d\	-ter-
!	!	!LO:N:acc=#	!	!	!	!	!
!	!	!LO:TX:t=P:problem=♯above	!	!	!	!	!
.	.	1Bn\	.	.	.	.	.
=60-	=60-	=60-	=60-	=60-	=60-	=60-	=60-
!LO:TX:t=P:problem=kreska pseudotaktowa	!	!LO:TX:t=P:problem=kreska pseudotaktowa	!	!	!	!	!
*	*	*	*	*	*	*Xcol	*
!	!	!	!	!	!	!LO:N:acc=#	!
!	!	!	!	!	!	!LO:TX:t=P:problem=kreska pseudotaktowa	!
0.C/	-num	0.c\	-num	.	.	0.en\	-num
=61-	=61-	=61-	=61-	=61-	=61-	=61-	=61-
*	*	*	*	*	*ij	*	*
1GG/	Vi-	1B-\	Vi-	1d\	Vi-	00.r	.
!	!LO:MO:mod=-vat	!	!LO:MO:mod=-vat	!	!LO:MO:mod=-vat	!	!
1AA/	-uat	1A\	-uat	1c\	-uat	.	.
!	!	!	!	!LO:TX:t=P:problem=kreska pseudotaktowa	!	!	!
1BB-/	Ma-	1G/	Ma-	1B-\	Ma-	.	.
=62-	=62-	=62-	=62-	=62-	=62-	=62-	=62-
0D\	-ri-	0F#X/	-ri-	0A\	-ri-	.	.
*custos:BB	*	*	*	*	*	*	*
!LO:TX:t=P:problem=kreska pseudotaktowa	!	!	!	!	!	!	!
!	!	!LO:TX:t=P:problem=kreska pseudotaktowa	!	!LO:TX:t=P:problem=kreska pseudotaktowa	!	!	!
1D\	-a	1F#/	-a	1A\	-a	.	.
!LO:LB:g=original	!	!	!	!	!	!	!
=63-	=63-	=63-	=63-	=63-	=63-	=63-	=63-
*	*ij	*	*ij	*	*	*	*
*xywh-#314:922,2223,6416,1032	*	*	*	*	*	*	*
1BB-/	Vi-	1B-\	Vi-	1d\	Vi-	1f\	Vi-
!	!LO:MO:mod=-vat	!	!LO:MO:mod=-vat	!	!LO:MO:mod=-vat	!	!LO:MO:mod=-vat
1C/	-uat	1G/	-uat	1c\	-uat	1e-X\	-uat
!LO:TX:t=P:problem=kreska pseudotaktowa	!	!	!	!LO:TX:t=P:problem=kreska pseudotaktowa	!	!LO:TX:t=P:problem=kreska pseudotaktowa	!
1D\	Ma-	1F/	Ma-	1B-\	Ma-	1d\	Ma-
=64-	=64-	=64-	=64-	=64-	=64-	=64-	=64-
1.F\	-ri-	1.F/	-ri-	1.A\	-ri-	1.c\	-ri-
2F\	-a	2F/	-a	2A/	-a	2c/	-a
*	*Xij	*	*Xij	*	*Xij	*	*
!LO:TX:t=P:problem=kreska pseudotaktowa	!	!LO:TX:t=P:problem=kreska pseudotaktowa	!	!LO:N:acc=#	!	!LO:TX:t=P:problem=kreska pseudotaktowa	!
1D\	in	1G/	in	2.Bn\	in	1d\	in
.	.	.	.	4B\	ae-	.	.
=65-	=65-	=65-	=65-	=65-	=65-	=65-	=65-
1C/	ae-	1G/	ae-	0c\	-ter-	1e-X\	ae-
0G\	-ter-	0G/	-ter-	.	.	0d\	-ter-
!	!	!	!	!LO:N:acc=#	!	!	!
.	.	.	.	1Bn\	.	.	.
=66-	=66-	=66-	=66-	=66-	=66-	=66-	=66-
*	*	*	*	*	*	*custos:e	*
!	!	!	!	!	!	!LO:TX:t=P:problem=kreska pseudotaktowa	!
!LO:TX:t=P:problem=kreska pseudotaktowa	!	!LO:TX:t=P:problem=kreska pseudotaktowa	!	!LO:TX:t=P:problem=kreska pseudotaktowa	!	!LO:N:acc=#	!
0.C/	-num	0.G/	-num	0.c\	-num	0.en\	-num
!	!	!	!	!	!	!LO:PB:g=original	!
=67-	=67-	=67-	=67-	=67-	=67-	=67-	=67-
*	*	*	*	*	*	*xywh-#64:7222,478,6453,950	*
1C/	Vi-	1G/	Vi-	1c\	Vi-	1e\	Vi-
!	!LO:MO:mod=-vat	!	!LO:MO:mod=-vat	!	!LO:MO:mod=-vat	!	!LO:MO:mod=-vat
1BB-/	-uat	1G/	-uat	1d\	-uat	1g\	-uat
*	*	*custos:B	*	*	*	*	*
!	!	!LO:TX:t=P:problem=kreska pseudotaktowa	!	!	!	!	!
!LO:TX:t=P:problem=kreska pseudotaktowa	!	!	!	!	!	!LO:TX:t=P:problem=♯above	!
1AA/	Ma-	1A\	Ma-	1c\	Ma-	1f#X\	Ma-
!	!	!LO:PB:g=original	!	!	!	!	!
=68-	=68-	=68-	=68-	=68-	=68-	=68-	=68-
*	*	*xywh-#227:7191,508,6239,858	*	*	*	*	*
0GG/	-ri-	0B-\	-ri-	0d\	-ri-	0g\	-ri-
*	*	*	*	*custos:d	*	*	*
!	!	!	!	!LO:TX:t=P:problem=kreska pseudotaktowa	!	!	!
!LO:TX:t=P:problem=kreska pseudotaktowa	!	!LO:TX:t=P:problem=kreska pseudotaktowa	!	!	!	!LO:TX:t=P:problem=kreska pseudotaktowa	!
1GG/	-a	1B-\	-a	1d\	-a	1g\	-a
!	!	!	!	!LO:LB:g=original	!	!	!
=69-	=69-	=69-	=69-	=69-	=69-	=69-	=69-
*	*ij	*	*ij	*	*ij	*	*ij
*	*	*	*	*xywh-#150:7388,1829,6571,918	*	*	*
1G\	Vi-	1B-\	Vi-	1d\	Vi-	1g\	Vi-
!	!LO:MO:mod=-vat	!	!LO:MO:mod=-vat	!	!LO:MO:mod=-vat	!	!LO:MO:mod=-vat
1F\	-uat	1A\	-uat	1d\	-uat	1a\	-uat
!	!	!LO:TX:t=P:problem=kreska pseudotaktowa	!	!	!	!	!
!LO:TX:t=P:problem=kreska pseudotaktowa	!	!LO:SIC:v:o=1e\	!	!LO:TX:t=P:problem=kreska pseudotaktowa	!	!	!
1E-X\	Ma-	1e-	Ma-	1c#X\	Ma-	1g\	Ma-
=70-	=70-	=70-	=70-	=70-	=70-	=70-	=70-
1.D\	-ri-	1.A\	-ri-	1.d\	-ri-	1.f\	-ri-
2BB-/	a	2B-\	.	2d\	-a	2f\	-a
*	*Xij	*	*	*	*Xij	*	*Xij
!LO:TX:t=P:problem=kreska pseudotaktowa	!	!	!	!LO:TX:t=P:problem=kreska pseudotaktowa	!	!LO:TX:t=P:problem=kreska pseudotaktowa	!
1C/	in	2.G/	-a	1c\	in	1e-X\	in
*	*	*	*Xij	*	*	*	*
!	!	!LO:TX:t=P:problem=kreska pseudotaktowa	!	!	!	!	!
.	.	4G/	in	.	.	.	.
=71-	=71-	=71-	=71-	=71-	=71-	=71-	=71-
1D\	inae-	0B-\	ae-	1F/	ae-	1d\	ae-
*lig	*	*	*	*lig	*	*	*
1E\	-ter-	.	.	1F/	-ter-	0c\	-ter-
!LO:TX:t=P:problem=kreska pseudotaktowa	!	!	!	!	!	!	!
1F\	.	1A\	-ter-	1f\	.	.	.
*Xlig	*	*	*	*Xlig	*	*	*
=72-	=72-	=72-	=72-	=72-	=72-	=72-	=72-
!	!LO:MO:mod=-num	!LO:TX:t=P:problem=kreska pseudotaktowa	!	!LO:TX:t=P:problem=kreska pseudotaktowa	!LO:MO:mod=-num	!	!
0BB-/	-n(um)	0.B-\	-num	0.f\	-n(um)	0d\	-num
!LO:TX:t=P:problem=kreska pseudotaktowa	!	!	!	!	!	!LO:TX:t=P:problem=kreska pseudotaktowa	!
1BB-/	Ma-	.	.	.	.	1d\	Ma-
=73-	=73-	=73-	=73-	=73-	=73-	=73-	=73-
1.D\	-ri-	1r	.	1r	.	1.f\	-ri-
.	.	1r	.	1r	.	.	.
2C/	-a	.	.	.	.	2e\	-a
!	!	!LO:TX:t=P:problem=kreska pseudotaktowa	!	!LO:TX:t=P:problem=kreska pseudotaktowa	!	!	!
2D/	in	1B-\	Ma-	1d\	Ma-	2f\	in
*custos:F	*	*	*	*	*	*	*
!LO:TX:t=P:problem=kreska pseudotaktowa	!	!	!	!	!	!	!
!	!	!	!	!	!	!LO:TX:t=P:problem=kreska pseudotaktowa	!
2E\	ae-	.	.	.	.	2g\	ae-
!LO:LB:g=original	!	!	!	!	!	!	!
=74-	=74-	=74-	=74-	=74-	=74-	=74-	=74-
*xywh-#314:1006,2797,6260,1064	*	*	*	*	*	*	*
!LO:TX:t=P:problem=kreska pseudotaktowa	!	!	!	!	!	!	!
0.F\	-ter-	1.A\	-ri-	1.c\	-ri-	0.a\	-ter-
.	.	2G/	-a	2B-\	-a	.	.
.	.	2A/	in	2c\	in	.	.
.	.	2B-\	ae-	2d\	ae-	.	.
=75-	=75-	=75-	=75-	=75-	=75-	=75-	=75-
1C/,	-num	1c\	-ter-	0e-X\	-ter-	1g\,	-num
1C/	in	1c\	-num	.	.	1g\	Vi-
!LO:TX:t=P:problem=kreska pseudotaktowa	!	!	!	!LO:TX:t=P:problem=kreska pseudotaktowa	!	!	!
!LO:TX:t=P:problem=kreska pseudotaktowa	!	!LO:TX:t=P:problem=kreska pseudotaktowa	!	!LO:N:acc=#	!LO:MO:mod=-num	!LO:TX:t=P:problem=kreska pseudotaktowa	!LO:MO:mod=-vat
1G\	ae-	1r	.	1Bn\	-n(um)	1d\	-uat
=76-	=76-	=76-	=76-	=76-	=76-	=76-	=76-
*	*	*	*	*col	*	*	*
(2C/	-ter-	1r	.	1c\	Vi-	0e-X\	Vi-
2D/)	.	.	.	.	.	.	.
!	!	!	!	!LO:TX:t=P:problem=kreska pseudotaktowa	!LO:MO:mod=-vat	!	!
2E-X\	.	1g\	Vi-	0G/	-uat	.	.
2F\	.	.	.	.	.	.	.
!	!	!	!LO:MO:mod=-vat	!	!	!	!LO:MO:mod=-vat
2G\	.	1d\	-uat	.	.	1Bn/	-uat
2GG/	.	.	.	.	.	.	.
!LO:TX:t=P:problem=kreska pseudotaktowa	!	!LO:TX:t=P:problem=kreska pseudotaktowa	!	!	!	!LO:N:acc=#	!
*	*	*	*	*Xcol	*	*	*
=77-	=77-	=77-	=77-	=77-	=77-	=77-	=77-
0C/	-num	0e-X\	Vi-	1r	.	0c\	Vi-
.	.	.	.	1g\	Vi-	.	.
!LO:TX:t=P:problem=kreska pseudotaktowa	!	!	!	!	!	!	!
!LO:N:acc=#	!	!LO:TX:t=P:problem=kreska pseudotaktowa	!LO:MO:mod=-vat	!LO:TX:t=P:problem=kreska pseudotaktowa	!LO:MO:mod=-vat	!LO:TX:t=P:problem=kreska pseudotaktowa	!LO:MO:mod=-vat
1BBn/	Vi-	1d\	-uat	1d\	-uat	1d\	-uat
=78-	=78-	=78-	=78-	=78-	=78-	=78-	=78-
!	!LO:MO:mod=-vat	!	!	!	!	!	!
0C/	-uat	0c\	in	0e-X\	in	1r	.
.	.	.	.	.	.	1g\	in
!	!	!LO:N:acc=#	!	!	!	!	!
!	!	!LO:TX:t=P:problem=♯above	!	!	!	!	!
1G\	.	1Bn\	ae-	1d\	ae-	1d\	ae-
=79-	=79-	=79-	=79-	=79-	=79-	=79-	=79-
*M2/1	*	*M2/1	*	*M2/1	*	*M2/1	*
*met(C|)	*	*met(C|)	*	*met(C|)	*	*met(C|)	*
*mmet(c|)	*	*mmet(c|)	*	*mmet(c|)	*	*mmet(c|)	*
!LO:TX:t=P:problem=kreska pseudotaktowa	!	!	!	!	!	!	!
1C/	Vi-	1G/	-ter-	4d\	-ter-	1e-X\	-ter-
.	.	.	.	8c\L	.	.	.
.	.	.	.	8B-\J	.	.	.
.	.	.	.	2c\	.	.	.
!	!	!	!	!LO:TX:b:i:t=AMDG..:mod=	!	!	!
!LO:TX:b:t=Eius<..> Au<...> de\nImmaculata Concpt(ioni)s et\nNativitate B..MV. Anno <....>\n1663..:mod=	!	!	!	!LO:N:acc=#	!	!	!
!LO:SIC:o=1GG/l	!LO:MO:mod=-vat.	!LO:SIC:o=1G/l	!LO:MO:mod=-num.	!LO:TX:t=P:problem=2nd # below	!	!	!
1GG;	-uat	1G;	-n(um).	1B\;l	-num.	1d\;l	-num.
==	==	==	==	==	==	==	==
*-	*-	*-	*-	*-	*-	*-	*-
!!!system-decoration: [(*)]
!!LO:MO:ori
!!!RDF**kern: l = terminal long
!!LO:MO:end
!!!filter-modern: sic -sq | shed -e "s/TX(.*):t=P:/tx$1:t=P:/LG" | shed -e "s/^(\d+[\/\\]right)/$1yy/I;s/^(\d+[\/\\]left)/$1yy/I" | shed -e "s/-//B" | shed -e "s/^custos:/Xcustos:/I" | shed -k -e "s/LO:N:acc/LO:n:acc:/L" | autostem -r | tie -s  | humtr -p | modori -m
!!!ENC: Andrzej Borzym
!!!END: 2021-03-03
!!!EED: Leszek Kubiak
!!!EEV: 2021-03-18
!!!ENC-modern: Andrzej Borzym
!!!END-modern: 2022-07-14
!!!ENC-iiif: Bartosz Żurakowski
!!!END-iiif: 2022-09-19
